public/img/icons/temp.svg

<svg width="64" height="64" viewBox="0 0 64 64" fill="none" xmlns="http://www.w3.org/2000/svg">
<path d="M24.2686 7.76501H15.2725V11.9389H24.2686V7.76501Z" fill="white"/>
<path d="M24.2686 16.3855H15.2725V20.5594H24.2686V16.3855Z" fill="white"/>
<path d="M24.2686 25.006H15.2725V29.1799H24.2686V25.006Z" fill="white"/>
<path d="M24.2686 33.6252H15.2725V37.7991H24.2686V33.6252Z" fill="white"/>
<path d="M24.2686 42.2457H15.2725V46.4196H24.2686V42.2457Z" fill="white"/>
<path d="M44.9889 45.6576V0H31.725V45.6571C29.3191 47.6535 27.94 50.6155 27.9875 53.7876C28.0278 56.469 29.0976 59.0026 31 60.9221C32.9028 62.8419 35.427 63.9339 38.1079 63.9971C38.1922 63.9991 38.276 64 38.36 64C41.0849 63.9999 43.6487 62.9574 45.6029 61.0485C47.6178 59.0804 48.7276 56.4455 48.7276 53.6292C48.7276 50.5213 47.3487 47.6183 44.9889 45.6576ZM35.8989 4.17388H40.8149V26.5508H35.8989V4.17388ZM38.357 57.4954C36.2634 57.4954 34.56 55.7921 34.56 53.6985C34.56 51.6049 36.2634 49.9015 38.357 49.9015C40.4507 49.9015 42.154 51.6049 42.154 53.6985C42.154 55.7921 40.4507 57.4954 38.357 57.4954Z" fill="white"/>
</svg>

<svg xmlns="http://www.w3.org/2000/svg" width="64" height="64" fill="none" viewBox="0 0 64 64"><path fill="#fff" d="M24.269 7.765h-8.996v4.174h8.996zm0 8.621h-8.996v4.173h8.996zm0 8.62h-8.996v4.174h8.996zm0 8.619h-8.996V37.8h8.996zm0 8.621h-8.996v4.174h8.996zm20.72 3.412V0H31.725v45.657a10.32 10.32 0 0 0-3.738 8.13A10.32 10.32 0 0 0 31 60.923 10.3 10.3 0 0 0 38.36 64a10.3 10.3 0 0 0 7.243-2.952 10.3 10.3 0 0 0 3.125-7.419c0-3.108-1.38-6.01-3.74-7.971m-9.09-41.484h4.916V26.55h-4.916zm2.458 53.321A3.8 3.8 0 0 1 34.56 53.7a3.8 3.8 0 0 1 3.797-3.797 3.8 3.8 0 0 1 3.797 3.797 3.8 3.8 0 0 1-3.797 3.796"/></svg>
